src/topics/icons/surge.svg

<svg height="380" preserveAspectRatio="xMidYMid" viewBox="0 0 256 380" width="256" xmlns="http://www.w3.org/2000/svg"><path d="m245.829 92.642c-2.59-2.167-5.503-4.767-13.489-6.826v-.109c11.439-29.472 3.561-41.174-7.446-50.384-7.986-6.718-21.907-8.018-32.806-5.526-11.763-21.887-38.526-29.58-63.886-29.797-25.359.217-52.122 7.91-63.993 29.689-10.899-2.492-24.82-1.084-32.806 5.526-11.007 9.21-18.885 20.912-7.446 50.384v.108c-7.986 2.059-10.791 4.768-13.381 6.935-5.72 4.442-10.576 11.377-10.576 21.671.54 16.361 13.489 140.425 13.489 140.425 0 .325.324.65.648.65.216 0 .324-.108.431-.216l11.655-10.944v17.662c0 .433.324.65.648.65.108 0 .324 0 .431-.217l19.749-17.12v10.294c0 .433.323.65.647.65.216 0 .324-.108.432-.217l11.115-10.727 7.662-7.368c.432 39.549-1.079 87.658-7.878 132.408-1.079 7.26 2.914 8.993 6.475 8.993 1.943 0 3.669-.541 4.532-.975 10.9-5.743 19.965-28.605 25.9-54.068 4.964-21.129 10.468-48.651 15.648-82.132 2.374 1.192 9.388 3.359 16.403 3.359 7.014 0 13.921-2.167 16.403-3.359 5.072 33.373 10.683 60.895 15.647 82.132 5.936 25.463 15 48.325 25.9 54.068.863.434 2.698.975 4.532.975 3.561 0 7.662-1.733 6.475-8.993-6.799-44.642-8.309-92.75-7.878-132.408l7.662 7.368 11.115 10.727c.108.109.324.217.432.217.324 0 .648-.325.648-.65v-10.294l19.748 17.12c.108.108.324.217.432.217.323 0 .647-.325.647-.65v-17.662l11.655 10.944c.108.108.323.216.431.216.324 0 .648-.216.648-.65 0 0 12.95-123.956 13.489-140.425.432-10.294-4.424-17.229-10.144-21.671" fill="#564740"/><path d="m132.195 181.925-3.993-3.792-3.992 3.792v.108l-4.641 4.66c2.698 2.817 5.612 4.334 8.633 4.334 3.022 0 5.936-1.517 8.634-4.334z" fill="#483a34"/><path d="m140.936 194.927h-25.468l-1.079 8.452h27.627z" fill="#aad9bd"/><path d="m110.828 195.469s-3.345 24.596-4.532 33.156c-9.713 66.421-23.418 136.2-39.173 143.027-1.187.541-2.266-.542-2.159-1.734 1.943-10.51 6.367-38.249 7.77-63.062 1.079-18.42 1.511-51.793 1.619-86.249l9.497-9.102c.755-.758 1.942-.433 1.942.759v8.56z" fill="#f7e3d6"/><path d="m85.684 220.932v-8.56c0-1.192-1.187-1.517-1.942-.758l-5.936 5.634c-.107 2.926-1.402 55.26-1.402 66.096 0 30.122-7.77 77.364-7.015 77.364 6.799 0 16.295-102.394 19.425-143.135z" fill="#faf1eb"/><path d="m145.577 195.469s3.345 24.596 4.532 33.156c9.712 66.421 23.418 136.2 39.173 143.027 1.187.541 2.266-.542 2.158-1.734-1.942-10.51-6.367-38.249-7.769-63.062-1.08-18.42-1.511-51.793-1.619-86.249l-9.497-9.102c-.755-.758-1.942-.433-1.942.759v8.56z" fill="#f7e3d6"/><path d="m227.052 90.15c-5.504-.867-22.338-.65-22.554-.65l21.043-4.876c16.08-34.348-8.525-50.709-23.417-50.709-5.072 0-18.345 1.842-19.856 1.842 0 0 2.482-.326 3.129-.976 0-6.393-17.806-27.521-57.195-27.521-39.28 0-57.194 21.128-57.194 27.521.647.65 3.129.976 3.129.976-1.511 0-14.784-1.842-19.856-1.842-14.784 0-39.497 16.252-23.417 50.709l21.043 4.876c-.108 0-17.051-.109-22.554.65-7.554 1.192-22.339 9.318-22.339 23.729 0 6.718 2.806 26.547 2.806 26.547h236.657s2.806-19.829 2.806-26.547c.108-14.411-14.677-22.537-22.231-23.729" fill="#63c199"/><path d="m217.664 47.025c-3.562-2.6-8.31-3.684-14.677-3.684 0 0-2.806.109-4.424.325-15.216 1.951-20.612 10.186-35.288 10.186-7.446 0-3.454-17.77-3.454-17.77s18.777.433 18.777-.867c0-5.743-22.122-22.321-48.885-22.321h-3.237c-26.763 0-48.886 16.578-48.886 22.321 0 1.3 18.778.867 18.778.867s4.1 17.77-3.454 17.77c-14.676 0-20.072-8.235-35.288-10.186-1.618-.216-4.424-.325-4.424-.325-6.367 0-11.115 1.084-14.677 3.684-4.964 3.684-15.108 17.445 2.59 40.091l10.576 2.384h152.591l10.576-2.384c17.914-22.754 7.77-36.515 2.806-40.091" fill="#c5e4d0"/><path d="m55.468 58.077c-1.079 0-2.05.325-2.914.975.324.326.432.651.432 1.084 0 .867-.647 1.517-1.511 1.517-.324 0-.647-.108-.971-.325-.54.975-.755 2.167-.755 3.359 0 3.684 2.59 6.609 5.827 6.609s5.827-2.925 5.827-6.609c-.107-3.684-2.697-6.61-5.935-6.61" fill="#483a34"/><path d="m54.281 60.136c0-.758-.324-1.517-.863-1.95-.54-.542-1.187-.867-1.943-.867-1.511 0-2.806 1.3-2.806 2.817 0 .867.432 1.734 1.08 2.275.431.326 1.079.542 1.726.542 1.511 0 2.806-1.3 2.806-2.817" fill="#fbf9f6"/><path d="m123.562 101.96-6.691-6.284 6.799 6.393z" fill="#564740"/><path d="m77.914 217.14-3.561 3.467z" fill="#a8e1c2"/><path d="m83.742 211.505-5.828 5.635z" fill="#a8e1c2"/><path d="m123.994 102.394 2.806 2.6-3.13-2.925z" fill="#564740"/><path d="m202.987 58.077c-1.079 0-2.05.325-2.913.975.323.326.431.651.431 1.084 0 .867-.647 1.517-1.511 1.517-.323 0-.647-.108-.971-.325-.539.975-.755 2.167-.755 3.359 0 3.684 2.59 6.609 5.827 6.609 3.238 0 5.828-2.925 5.828-6.609-.108-3.684-2.698-6.61-5.936-6.61" fill="#483a34"/><path d="m201.8 60.136c0-.758-.324-1.517-.863-1.95-.54-.542-1.187-.867-1.943-.867-1.51 0-2.805 1.3-2.805 2.817 0 .867.431 1.734 1.079 2.275.431.326 1.079.542 1.726.542 1.511 0 2.806-1.3 2.806-2.817" fill="#fbf9f6"/><path d="m132.843 101.96 6.69-6.284-6.798 6.393z" fill="#564740"/><path d="m170.721 220.932v-8.56c0-1.192 1.187-1.517 1.942-.758l5.935 5.634c.108 2.926 1.403 55.26 1.403 66.096 0 30.122 7.77 77.364 7.015 77.364-6.799 0-16.295-102.394-19.425-143.135z" fill="#faf1eb"/><path d="m178.491 217.14 3.561 3.467z" fill="#a8e1c2"/><path d="m172.663 211.505 5.828 5.635z" fill="#a8e1c2"/><path d="m132.411 102.394-2.806 2.6 3.13-2.925z" fill="#564740"/><path d="m207.951 110.195c-23.201-10.077-57.842-13.652-68.418-14.519l-6.798 6.393-.324.325-2.806 2.6c-.323.325-.863.542-1.403.542-.539 0-.971-.217-1.402-.542l-2.806-2.6-.324-.325-6.799-6.393c-10.575.867-45.216 4.442-68.417 14.519-24.929 10.835-38.634 31.098-38.634 30.231l1.187 12.894v-.109c37.447-43.016 113.095 28.606 113.095 28.606l3.992-3.793 3.993 3.793s75.649-71.622 113.095-28.606v.109l1.187-12.894c.216.867-13.489-19.396-38.418-30.231" fill="#aad9bd"/><path d="m124.21 181.925-5.072-52.443c-5.396 7.043-15.108 13.327-31.08 13.327-24.82 0-39.496-32.614-76.943 10.402l7.662 83.541.54 4.009 10.575-10.836 1.295-72.921 1.619-1.084.54 91.45 12.518-10.835 5.719-4.984c.432-21.346 1.079-58.078 1.079-58.078l1.727-1.191.324 67.395 10.251-9.86.648-.65 6.151-5.959c.324-17.337.648-33.807.648-33.807l1.726-1.517.216 32.94 3.561-3.468 5.936-5.634c.323-.325.647-.433.971-.433.539 0 .971.433.971 1.192v8.559z" fill="#c5e4d0"/><path d="m157.016 82.348c-.324-.108-.648-.216-.972-.216h-55.684c-.323 0-.755.108-.971.216-.755.434-1.187 1.301-.755 2.059l.324.434 24.604 23.187.108.109 3.13 2.925c.323.325.863.542 1.402.542.54 0 .972-.217 1.403-.542l3.13-2.925.108-.109 24.604-23.187c.108-.109.216-.217.324-.434.432-.758.108-1.734-.755-2.059" fill="#564740"/><path d="m132.195 181.925 5.072-52.443c5.396 7.043 15.108 13.327 31.08 13.327 24.82 0 39.496-32.614 76.943 10.402l-7.662 83.541-.54 4.009-10.575-10.836-1.295-72.921-1.619-1.084-.54 91.45-12.518-10.835-5.719-4.984c-.432-21.346-1.079-58.078-1.079-58.078l-1.727-1.191-.324 67.395-10.252-9.86-.647-.65-6.151-5.959c-.324-17.337-.648-33.807-.648-33.807l-1.726-1.517-.216 32.94-3.561-3.468-5.936-5.634c-.323-.325-.647-.433-.971-.433-.54 0-.971.433-.971 1.192v8.559z" fill="#c5e4d0"/><path d="m232.34 68.479c0-2.167 0-4.226-.108-6.284v23.512c.108-17.661.108-16.794.108-17.228" fill="#564740"/><path d="m92.375 60.569c12.302 0 4.964-20.262 4.964-20.262s.971 8.344-8.525 8.344c-18.346 0-18.346-6.393-33.022-6.393-12.087 0-15.971 3.901-15.971 3.901 27.841-6.718 34.748 14.41 52.554 14.41" fill="#aad9bd"/><path d="m141.908 202.62-6.691-6.717c-2.374.325-4.64.433-7.015.433-2.374 0-4.748-.217-7.014-.433l-6.691 6.717-4.1 30.123c4.964 4.117 10.899 5.851 17.59 5.851h.431c6.799 0 12.626-1.734 17.59-5.851z" fill="#c5e4d0"/><path d="m140.181 190.051-3.345-3.467c-2.698 2.817-5.612 4.334-8.634 4.334-3.021 0-5.935-1.517-8.633-4.334l-3.345 3.467-.648 4.876c.756.217 1.403.326 2.159.434 3.453.65 6.906.975 10.467.975 3.562 0 7.123-.325 10.468-.975.756-.108 1.511-.325 2.158-.434z" fill="#63c199"/><path d="m164.03 60.569c-12.302 0-4.964-20.262-4.964-20.262s-.971 8.344 8.525 8.344c18.346 0 18.346-6.393 33.022-6.393 12.086 0 15.972 3.901 15.972 3.901-27.843-6.718-34.749 14.41-52.555 14.41" fill="#aad9bd"/></svg>

<?xml version="1.0" encoding="UTF-8" standalone="no"?>
<svg width="256px" height="380px" viewBox="0 0 256 380" version="1.1" xmlns="http://www.w3.org/2000/svg" xmlns:xlink="http://www.w3.org/1999/xlink" preserveAspectRatio="xMidYMid">
	<g>
		<path d="M245.829,92.642 C243.239,90.475 240.326,87.875 232.34,85.816 L232.34,85.707 C243.779,56.235 235.901,44.533 224.894,35.323 C216.908,28.605 202.987,27.305 192.088,29.797 C180.325,7.91 153.562,0.217 128.202,0 C102.843,0.217 76.08,7.91 64.209,29.689 C53.31,27.197 39.389,28.605 31.403,35.215 C20.396,44.425 12.518,56.127 23.957,85.599 L23.957,85.707 C15.971,87.766 13.166,90.475 10.576,92.642 C4.856,97.084 0,104.019 0,114.313 C0.54,130.674 13.489,254.738 13.489,254.738 C13.489,255.063 13.813,255.388 14.137,255.388 C14.353,255.388 14.461,255.28 14.568,255.172 L26.223,244.228 L26.223,261.89 C26.223,262.323 26.547,262.54 26.871,262.54 C26.979,262.54 27.195,262.54 27.302,262.323 L47.051,245.203 L47.051,255.497 C47.051,255.93 47.374,256.147 47.698,256.147 C47.914,256.147 48.022,256.039 48.13,255.93 L59.245,245.203 L66.907,237.835 C67.339,277.384 65.828,325.493 59.029,370.243 C57.95,377.503 61.943,379.236 65.504,379.236 C67.447,379.236 69.173,378.695 70.036,378.261 C80.936,372.518 90.001,349.656 95.936,324.193 C100.9,303.064 106.404,275.542 111.584,242.061 C113.958,243.253 120.972,245.42 127.987,245.42 C135.001,245.42 141.908,243.253 144.39,242.061 C149.462,275.434 155.073,302.956 160.037,324.193 C165.973,349.656 175.037,372.518 185.937,378.261 C186.8,378.695 188.635,379.236 190.469,379.236 C194.03,379.236 198.131,377.503 196.944,370.243 C190.145,325.601 188.635,277.493 189.066,237.835 L196.728,245.203 L207.843,255.93 C207.951,256.039 208.167,256.147 208.275,256.147 C208.599,256.147 208.923,255.822 208.923,255.497 L208.923,245.203 L228.671,262.323 C228.779,262.431 228.995,262.54 229.103,262.54 C229.426,262.54 229.75,262.215 229.75,261.89 L229.75,244.228 L241.405,255.172 C241.513,255.28 241.728,255.388 241.836,255.388 C242.16,255.388 242.484,255.172 242.484,254.738 C242.484,254.738 255.434,130.782 255.973,114.313 C256.405,104.019 251.549,97.084 245.829,92.642" fill="#564740"></path>
		<path d="M132.195,181.925 L128.202,178.133 L124.21,181.925 L124.21,182.033 L119.569,186.693 C122.267,189.51 125.181,191.027 128.202,191.027 C131.224,191.027 134.138,189.51 136.836,186.693 L132.195,181.925" fill="#483A34"></path>
		<path d="M140.936,194.927 L115.468,194.927 L114.389,203.379 L142.016,203.379 L140.936,194.927" fill="#AAD9BD"></path>
		<path d="M110.828,195.469 C110.828,195.469 107.483,220.065 106.296,228.625 C96.583,295.046 82.878,364.825 67.123,371.652 C65.936,372.193 64.857,371.11 64.964,369.918 C66.907,359.408 71.331,331.669 72.734,306.856 C73.813,288.436 74.245,255.063 74.353,220.607 L83.85,211.505 C84.605,210.747 85.792,211.072 85.792,212.264 L85.792,220.824 L110.828,195.469" fill="#F7E3D6"></path>
		<path d="M85.684,220.932 L85.684,212.372 C85.684,211.18 84.497,210.855 83.742,211.614 L77.806,217.248 C77.699,220.174 76.404,272.508 76.404,283.344 C76.404,313.466 68.634,360.708 69.389,360.708 C76.188,360.708 85.684,258.314 88.814,217.573 L85.684,220.932" fill="#FAF1EB"></path>
		<path d="M145.577,195.469 C145.577,195.469 148.922,220.065 150.109,228.625 C159.821,295.046 173.527,364.825 189.282,371.652 C190.469,372.193 191.548,371.11 191.44,369.918 C189.498,359.408 185.073,331.669 183.671,306.856 C182.591,288.436 182.16,255.063 182.052,220.607 L172.555,211.505 C171.8,210.747 170.613,211.072 170.613,212.264 L170.613,220.824 L145.577,195.469" fill="#F7E3D6"></path>
		<path d="M227.052,90.15 C221.548,89.283 204.714,89.5 204.498,89.5 L225.541,84.624 C241.621,50.276 217.016,33.915 202.124,33.915 C197.052,33.915 183.779,35.757 182.268,35.757 C182.268,35.757 184.75,35.431 185.397,34.781 C185.397,28.388 167.591,7.26 128.202,7.26 C88.922,7.26 71.008,28.388 71.008,34.781 C71.655,35.431 74.137,35.757 74.137,35.757 C72.626,35.757 59.353,33.915 54.281,33.915 C39.497,33.915 14.784,50.167 30.864,84.624 L51.907,89.5 C51.799,89.5 34.856,89.391 29.353,90.15 C21.799,91.342 7.014,99.468 7.014,113.879 C7.014,120.597 9.82,140.426 9.82,140.426 L246.477,140.426 C246.477,140.426 249.283,120.597 249.283,113.879 C249.391,99.468 234.606,91.342 227.052,90.15" fill="#63C199"></path>
		<path d="M217.664,47.025 C214.102,44.425 209.354,43.341 202.987,43.341 C202.987,43.341 200.181,43.45 198.563,43.666 C183.347,45.617 177.951,53.852 163.275,53.852 C155.829,53.852 159.821,36.082 159.821,36.082 C159.821,36.082 178.598,36.515 178.598,35.215 C178.598,29.472 156.476,12.894 129.713,12.894 L126.476,12.894 C99.713,12.894 77.59,29.472 77.59,35.215 C77.59,36.515 96.368,36.082 96.368,36.082 C96.368,36.082 100.468,53.852 92.914,53.852 C78.238,53.852 72.842,45.617 57.626,43.666 C56.008,43.45 53.202,43.341 53.202,43.341 C46.835,43.341 42.087,44.425 38.525,47.025 C33.561,50.709 23.417,64.47 41.115,87.116 L51.691,89.5 L204.282,89.5 L214.858,87.116 C232.772,64.362 222.628,50.601 217.664,47.025" fill="#C5E4D0"></path>
		<path fill="#A8E1C2"></path>
		<path d="M55.468,58.077 C54.389,58.077 53.418,58.402 52.554,59.052 C52.878,59.378 52.986,59.703 52.986,60.136 C52.986,61.003 52.339,61.653 51.475,61.653 C51.151,61.653 50.828,61.545 50.504,61.328 C49.964,62.303 49.749,63.495 49.749,64.687 C49.749,68.371 52.339,71.296 55.576,71.296 C58.813,71.296 61.403,68.371 61.403,64.687 C61.296,61.003 58.706,58.077 55.468,58.077" fill="#483A34"></path>
		<path d="M54.281,60.136 C54.281,59.378 53.957,58.619 53.418,58.186 C52.878,57.644 52.231,57.319 51.475,57.319 C49.964,57.319 48.669,58.619 48.669,60.136 C48.669,61.003 49.101,61.87 49.749,62.411 C50.18,62.737 50.828,62.953 51.475,62.953 C52.986,62.953 54.281,61.653 54.281,60.136" fill="#FBF9F6"></path>
		<path d="M123.562,101.96 L116.871,95.676 L123.67,102.069 L123.562,101.96" fill="#564740"></path>
		<path fill="#AAD9BD"></path>
		<path d="M77.914,217.14 L74.353,220.607 L77.914,217.14" fill="#A8E1C2"></path>
		<path d="M83.742,211.505 L77.914,217.14 L83.742,211.505" fill="#A8E1C2"></path>
		<path fill="#A8E1C2"></path>
		<path fill="#8CD7AF"></path>
		<path d="M123.994,102.394 L126.8,104.994 L123.67,102.069 L123.994,102.394" fill="#564740"></path>
		<path fill="#AAD9BD"></path>
		<path fill="#A8E1C2"></path>
		<path fill="#8CD7AF"></path>
		<path fill="#A8E1C2"></path>
		<path d="M202.987,58.077 C201.908,58.077 200.937,58.402 200.074,59.052 C200.397,59.378 200.505,59.703 200.505,60.136 C200.505,61.003 199.858,61.653 198.994,61.653 C198.671,61.653 198.347,61.545 198.023,61.328 C197.484,62.303 197.268,63.495 197.268,64.687 C197.268,68.371 199.858,71.296 203.095,71.296 C206.333,71.296 208.923,68.371 208.923,64.687 C208.815,61.003 206.225,58.077 202.987,58.077" fill="#483A34"></path>
		<path d="M201.8,60.136 C201.8,59.378 201.476,58.619 200.937,58.186 C200.397,57.644 199.75,57.319 198.994,57.319 C197.484,57.319 196.189,58.619 196.189,60.136 C196.189,61.003 196.62,61.87 197.268,62.411 C197.699,62.737 198.347,62.953 198.994,62.953 C200.505,62.953 201.8,61.653 201.8,60.136" fill="#FBF9F6"></path>
		<path d="M132.843,101.96 L139.533,95.676 L132.735,102.069 L132.843,101.96" fill="#564740"></path>
		<path d="M170.721,220.932 L170.721,212.372 C170.721,211.18 171.908,210.855 172.663,211.614 L178.598,217.248 C178.706,220.174 180.001,272.508 180.001,283.344 C180.001,313.466 187.771,360.708 187.016,360.708 C180.217,360.708 170.721,258.314 167.591,217.573 L170.721,220.932" fill="#FAF1EB"></path>
		<path fill="#AAD9BD"></path>
		<path d="M178.491,217.14 L182.052,220.607 L178.491,217.14" fill="#A8E1C2"></path>
		<path d="M172.663,211.505 L178.491,217.14 L172.663,211.505" fill="#A8E1C2"></path>
		<path fill="#A8E1C2"></path>
		<path fill="#8CD7AF"></path>
		<path d="M132.411,102.394 L129.605,104.994 L132.735,102.069 L132.411,102.394" fill="#564740"></path>
		<path d="M207.951,110.195 C184.75,100.118 150.109,96.543 139.533,95.676 L132.735,102.069 L132.411,102.394 L129.605,104.994 C129.282,105.319 128.742,105.536 128.202,105.536 C127.663,105.536 127.231,105.319 126.8,104.994 L123.994,102.394 L123.67,102.069 L116.871,95.676 C106.296,96.543 71.655,100.118 48.454,110.195 C23.525,121.03 9.82,141.293 9.82,140.426 L11.007,153.32 L11.007,153.211 C48.454,110.195 124.102,181.817 124.102,181.817 L128.094,178.024 L132.087,181.817 C132.087,181.817 207.736,110.195 245.182,153.211 L245.182,153.32 L246.369,140.426 C246.585,141.293 232.88,121.03 207.951,110.195" fill="#AAD9BD"></path>
		<path d="M124.21,181.925 L119.138,129.482 C113.742,136.525 104.03,142.809 88.058,142.809 C63.238,142.809 48.562,110.195 11.115,153.211 L18.777,236.752 L19.317,240.761 L29.892,229.925 L31.187,157.004 L32.806,155.92 L33.346,247.37 L45.864,236.535 L51.583,231.551 C52.015,210.205 52.662,173.473 52.662,173.473 L54.389,172.282 L54.713,239.677 L64.964,229.817 L65.612,229.167 L71.763,223.208 C72.087,205.871 72.411,189.401 72.411,189.401 L74.137,187.884 L74.353,220.824 L77.914,217.356 L83.85,211.722 C84.173,211.397 84.497,211.289 84.821,211.289 C85.36,211.289 85.792,211.722 85.792,212.481 L85.792,221.04 L124.21,181.925" fill="#C5E4D0"></path>
		<path d="M157.016,82.348 C156.692,82.24 156.368,82.132 156.044,82.132 L100.36,82.132 C100.037,82.132 99.605,82.24 99.389,82.348 C98.634,82.782 98.202,83.649 98.634,84.407 L98.958,84.841 L123.562,108.028 L123.67,108.137 L126.8,111.062 C127.123,111.387 127.663,111.604 128.202,111.604 C128.742,111.604 129.174,111.387 129.605,111.062 L132.735,108.137 L132.843,108.028 L157.447,84.841 C157.555,84.732 157.663,84.624 157.771,84.407 C158.203,83.649 157.879,82.673 157.016,82.348" fill="#564740"></path>
		<path d="M132.195,181.925 L137.267,129.482 C142.663,136.525 152.375,142.809 168.347,142.809 C193.167,142.809 207.843,110.195 245.29,153.211 L237.628,236.752 L237.088,240.761 L226.513,229.925 L225.218,157.004 L223.599,155.92 L223.059,247.37 L210.541,236.535 L204.822,231.551 C204.39,210.205 203.743,173.473 203.743,173.473 L202.016,172.282 L201.692,239.677 L191.44,229.817 L190.793,229.167 L184.642,223.208 C184.318,205.871 183.994,189.401 183.994,189.401 L182.268,187.884 L182.052,220.824 L178.491,217.356 L172.555,211.722 C172.232,211.397 171.908,211.289 171.584,211.289 C171.044,211.289 170.613,211.722 170.613,212.481 L170.613,221.04 L132.195,181.925" fill="#C5E4D0"></path>
		<path d="M232.34,68.479 C232.34,66.312 232.34,64.253 232.232,62.195 L232.232,85.707 C232.34,68.046 232.34,68.913 232.34,68.479" fill="#564740"></path>
		<path d="M92.375,60.569 C104.677,60.569 97.339,40.307 97.339,40.307 C97.339,40.307 98.31,48.651 88.814,48.651 C70.468,48.651 70.468,42.258 55.792,42.258 C43.705,42.258 39.821,46.159 39.821,46.159 C67.662,39.441 74.569,60.569 92.375,60.569" fill="#AAD9BD"></path>
		<path fill="#F6E0D3"></path>
		<path d="M141.908,202.62 L135.217,195.903 C132.843,196.228 130.577,196.336 128.202,196.336 C125.828,196.336 123.454,196.119 121.188,195.903 L114.497,202.62 L110.397,232.743 C115.361,236.86 121.296,238.594 127.987,238.594 L128.418,238.594 C135.217,238.594 141.044,236.86 146.008,232.743 L141.908,202.62" fill="#C5E4D0"></path>
		<path d="M140.181,190.051 L136.836,186.584 C134.138,189.401 131.224,190.918 128.202,190.918 C125.181,190.918 122.267,189.401 119.569,186.584 L116.224,190.051 L115.576,194.927 C116.332,195.144 116.979,195.253 117.735,195.361 C121.188,196.011 124.641,196.336 128.202,196.336 C131.764,196.336 135.325,196.011 138.67,195.361 C139.426,195.253 140.181,195.036 140.828,194.927 L140.181,190.051" fill="#63C199"></path>
		<path d="M164.03,60.569 C151.728,60.569 159.066,40.307 159.066,40.307 C159.066,40.307 158.095,48.651 167.591,48.651 C185.937,48.651 185.937,42.258 200.613,42.258 C212.699,42.258 216.585,46.159 216.585,46.159 C188.742,39.441 181.836,60.569 164.03,60.569" fill="#AAD9BD"></path>
	</g>
</svg>
